16x16/actions/widget-alternatives.svg

<svg viewBox="0 0 16 16" xmlns="http://www.w3.org/2000/svg"><path d="m14 3v3h-4v-3zm-1 1h-2v1h2zm-7.172.672.707.707-1.621 1.621h4.086v1h-4.086l1.621 1.621-.707.707-2.828-2.828zm4.344 2 2.828 2.828-2.828 2.828-.707-.707 1.621-1.621h-4.086v-1h4.086l-1.621-1.621zm-4.172 4.328v3h-4v-3zm-1 1h-2v1h2z" fill="#555e70"/></svg>

<svg viewBox="0 0 16 16" xmlns="http://www.w3.org/2000/svg"><path d="M14 3v3h-4V3zm-1 1h-2v1h2zm-7.172.672.707.707L4.914 7H9v1H4.914l1.621 1.621-.707.707L3 7.5l2.828-2.828zm4.344 2L13 9.5l-2.828 2.828-.707-.707L11.086 10H7V9h4.086L9.465 7.379l.707-.707zM6 11v3H2v-3zm-1 1H3v1h2z" fill="currentColor" style="color:#555e70"/></svg>
